X: 112
T: the Heir at Law
%R: march, reel
Z: 2018 John Chambers <jc:trillian.mit.edu>
B: Bland and Weller "Country Dances for the Year 1798" p.11 #2
M: 2/4
L: 1/8
K: Gm
% - - - - - - - - - - - - - - - - - - - - - - - - -
d |\
{c}BA/B/ GG | DGGd | {c}BA/B/ GB | d>edc |\
{c}BA/B/ GG | DGGB | AFFA | (AB/c/) BA :: B>cdd |\
gddc |
Bcdd | Tgabb |[1 Bcde | fddB | AFFA |\
{AB}c2BA :|[2 bga^f | ge=fd | cAAB | {AB}c2BA |]
% - - - - - - - - - - - - - - - - - - - - - - - - -
%%begintext align
%% Set and cross over one Couple .| Set & cross
%% over another Couple .|. lead up the middle cast
%% off :|. Right & Left :|:
%%endtext
% - - - - - - - - - - - - - - - - - - - - - - - - -
